X: 13
T:Paddy Faheys
R:Reel
M:4/4
S:Vincent Blin, France (fiddle)
C:Paddy Fahey
D:Concert on Clare FM
H:Actually 'G' but natural F except in 'G' runs.
H:The intitial 'B' is hit flat second time through.
K:C
GA |: B2dB c2Bc | dGGF DEFG | BcdB c2Bc | dGGF DGGA | (3Bcd (3Bcd c2Bc |
dGGF DEFG | BcdB cedc | BGAF DGG2 :: dg~g2 dgbg  | (3gab ag ^fdcA | cf~f2 cfaf |
cfag fedc | dg~g2 dg~g2 | bgag ^fdef | gbag ^fdeg | ^fdcA G4 :|
<end>
<start>
